X: 328
T: DO YOU MISTRUST ME?
T: B-fuil amhras agad orm?
B: O'Neill's 328
M: 6/8
L: 1/8
Z: 1999 by John Chambers <jc@trillian.mit.edu>
N: "Slow with feeling"
N: "Collected by J.O'Neill"
K:Gm
dcB ABc|GAF FB B/c/|dcd edc|dBA G2B/c/|
|dcB ABc|GAF FB B/c/|dcd edc|dGG G2z||
||FGA BAB|cBc dBB|FGA BAB|cde ed2B/c/|
|dcB cBA|GFG B2B/c/|ded cBc|dGG G2z||
